packages/astro-components-stencil/src/icons/view-compact.svg

<svg xmlns="http://www.w3.org/2000/svg" viewBox="0 0 24 24"><g xmlns="http://www.w3.org/2000/svg" id="view-compact" fill-rule="nonzero">
            <path d="M5 19h4v-7H3v5c0 1.1.9 2 2 2zm5 0h10c1.1 0 2-.9 2-2v-5H10v7zM3 7v4h19V7c0-1.1-.9-2-2-2H5c-1.1 0-2 .9-2 2z"/>
        </g></svg>

<svg width="24" height="24" viewBox="0 0 24 24" fill="none" xmlns="http://www.w3.org/2000/svg">
<path fill-rule="evenodd" clip-rule="evenodd" d="M3 11V7C3 5.9 3.9 5 5 5H20C21.1 5 22 5.9 22 7V11H3ZM5 19H9V12H3V17C3 18.1 3.9 19 5 19ZM10 19H20C21.1 19 22 18.1 22 17V12H10V19Z" fill="black"/>
</svg>
